X:1
T:Lady Diamond
M:2/2
L:1/4
K:C
 D| D A A2-| AG/2-A/2 B A/2G/2| F3 A|(2G15.9999925000037/23.999988000006G15.9999925000037/23.999988000006^F15.9999925000037/23.999988000006 D15.9999925000037/23.999988000006 D ^F|\
 G3^F/2-G/2| A3/2 A/2 G A| ^F E C D/2D/2| G^F/2-D/2 D3/2 D/2| D3|
